X: 1
T: Lindisfarne
C: Matt Seattle
R: waltz
Z: 1997 by John Chambers <jc:trillian.mit.edu>
M: 3/4
L: 1/8
K: G
D2 \
| "G"G3 ABc | d3 BGD | "Am"E2 c2 A2 | "D"G3 F D2 \
| "G"G3 ABc | d3 BGD | "C"E2 c2 B2 | "D7"A3 ABc |
| "G"d3 BGD | "C"E3 GcB | "Am"A3 GFE | "D"D3 ABc \
| "G"d3 BGD | "Am"E2 c2 A2 | "D"DG3 F2 | "G"G4 ||
B2 \
| "D7"A3 BcA | "G"d3 BGD | "Am"E2 c2 A2 | "D"G3 F D2 \
| "D7"A3 BcA | "G"d3 BGD | "C"E2 c2 B2 | "D7"A3 ABc |
| "G"d3 BGD | "C"E3 GcB | "Am"A3 GFE | "D"D3 ABc \
| "G"d3 BGD | "Am"E2 c2 A2 | "D"DG3 F2 | "G"G4 ||
